img/image/content/forwho-2.svg

<svg width="30" height="30" viewBox="0 0 30 30" fill="none" xmlns="http://www.w3.org/2000/svg">
<g clip-path="url(#clip0_1_392)">
<path d="M19.3548 20.7304V17.4194H20.3226V16.4517H14.5161V17.4194H15.4839V20.7304C15.1548 20.8743 14.8554 21.0619 14.5724 21.2696L11.6129 15.8445V13.5484H12.5806V12.5807H11.6129V11.1291C11.6129 10.8621 11.3967 10.6452 11.129 10.6452H10.6452V9.19359C10.6452 8.92661 10.429 8.70972 10.1613 8.70972H7.25806C6.99038 8.70972 6.77419 8.92661 6.77419 9.19359V10.6452H6.29032C6.02263 10.6452 5.80645 10.8621 5.80645 11.1291V12.5807H4.83871V13.5484H5.80645V15.8445L0.295095 25.9481C0.102067 26.3023 0 26.703 0 27.1065V27.5807C0 28.9146 1.0854 30 2.41935 30H15C15.3431 30 15.6797 29.9235 15.99 29.7843C16.4419 29.924 16.922 30 17.4194 30C20.0875 30 22.2581 27.8295 22.2581 25.1613C22.2581 23.2341 21.1046 21.495 19.3548 20.7304ZM18.3871 17.4194V18.3871H16.4516V17.4194H18.3871ZM16.1293 21.5158C16.3224 21.4472 16.4516 21.2646 16.4516 21.0595V19.3549H18.3871V21.0595C18.3871 21.2646 18.5163 21.4472 18.7094 21.5158C19.9403 21.9519 20.8388 22.9747 21.1568 24.1983C20.7885 24.2111 20.4431 24.3566 20.1808 24.6189L19.7801 25.0196C19.6896 25.1096 19.5653 25.1613 19.438 25.1613H19.2717C19.1443 25.1613 19.0196 25.1096 18.9296 25.0196L18.5289 24.6189C18.255 24.3446 17.8902 24.1936 17.5025 24.1936H17.3362C16.9485 24.1936 16.5837 24.3446 16.3099 24.6189L15.9091 25.0196C15.8187 25.1096 15.6944 25.1613 15.567 25.1613H15.4007C15.2734 25.1613 15.1486 25.1096 15.0586 25.0196L14.6579 24.6189C14.3961 24.3566 14.0507 24.2115 13.6819 24.1983C13.9999 22.9747 14.8984 21.9514 16.1293 21.5158ZM7.74194 9.67746H9.67742V10.6452H7.74194V9.67746ZM6.77419 11.6129H10.6452V12.5807H6.77419V11.6129ZM6.71513 16.1996C6.75387 16.1284 6.77419 16.0486 6.77419 15.9678V13.5484H10.6452V15.9678C10.6452 16.0486 10.6655 16.1284 10.7042 16.1996L12.4292 19.3617C12.0677 19.3785 11.7291 19.5224 11.4711 19.7802L11.0704 20.1809C10.9799 20.2709 10.8557 20.3226 10.7283 20.3226H10.562C10.4346 20.3226 10.3099 20.2709 10.2199 20.1809L9.81918 19.7802C9.54535 19.5059 9.18055 19.3549 8.79284 19.3549H8.62651C8.2388 19.3549 7.87401 19.5059 7.60018 19.7802L7.19947 20.1809C7.10898 20.2709 6.98471 20.3226 6.85736 20.3226H6.69103C6.56368 20.3226 6.43893 20.2709 6.34892 20.1809L5.94821 19.7802C5.69092 19.5224 5.35164 19.3785 4.99016 19.3617L6.71513 16.1996ZM2.41935 29.0323C1.61912 29.0323 0.967742 28.3809 0.967742 27.5807V27.1065C0.967742 26.8646 1.02917 26.6236 1.14494 26.4112L4.46612 20.3226H4.92188C5.04922 20.3226 5.17397 20.3744 5.26399 20.4644L5.66469 20.8651C5.93852 21.1394 6.30332 21.2904 6.69103 21.2904H6.85736C7.24507 21.2904 7.60986 21.1394 7.88369 20.8651L8.2844 20.4644C8.37489 20.3744 8.49916 20.3226 8.62651 20.3226H8.79284C8.92019 20.3226 9.04494 20.3744 9.13495 20.4644L9.53566 20.8651C9.80949 21.1394 10.1743 21.2904 10.562 21.2904H10.7283C11.116 21.2904 11.4808 21.1394 11.7547 20.8651L12.1554 20.4644C12.2459 20.3744 12.3701 20.3226 12.4975 20.3226H12.9532L13.8291 21.928C13.0456 22.7982 12.5806 23.941 12.5806 25.1613C12.5806 26.745 13.349 28.1491 14.5287 29.0323H2.41935ZM17.4194 29.0323C15.2849 29.0323 13.5484 27.2957 13.5484 25.1613H13.6316C13.7589 25.1613 13.8836 25.2131 13.9737 25.3031L14.3744 25.7038C14.6482 25.9781 15.013 26.1291 15.4007 26.1291H15.567C15.9547 26.1291 16.3195 25.9781 16.5934 25.7038L16.9941 25.3031C17.0846 25.2131 17.2088 25.1613 17.3362 25.1613H17.5025C17.6299 25.1613 17.7546 25.2131 17.8446 25.3031L18.2453 25.7038C18.5192 25.9781 18.884 26.1291 19.2717 26.1291H19.438C19.8257 26.1291 20.1905 25.9781 20.4643 25.7038L20.865 25.3031C20.9555 25.2131 21.0798 25.1613 21.2072 25.1613H21.2903C21.2903 27.2957 19.5538 29.0323 17.4194 29.0323Z" fill="white"/>
<path d="M3.38716 25.1613C2.58693 25.1613 1.93555 25.8126 1.93555 26.6129C1.93555 27.4131 2.58693 28.0645 3.38716 28.0645C4.18739 28.0645 4.83877 27.4131 4.83877 26.6129C4.83877 25.8126 4.18739 25.1613 3.38716 25.1613ZM3.38716 27.0967C3.12018 27.0967 2.90329 26.8794 2.90329 26.6129C2.90329 26.3464 3.12018 26.129 3.38716 26.129C3.65414 26.129 3.87103 26.3464 3.87103 26.6129C3.87103 26.8794 3.65414 27.0967 3.38716 27.0967Z" fill="white"/>
<path d="M7.25801 24.1936C6.45778 24.1936 5.8064 24.845 5.8064 25.6452C5.8064 26.4454 6.45778 27.0968 7.25801 27.0968C8.05824 27.0968 8.70962 26.4454 8.70962 25.6452C8.70962 24.845 8.05824 24.1936 7.25801 24.1936ZM7.25801 26.1291C6.99103 26.1291 6.77414 25.9117 6.77414 25.6452C6.77414 25.3787 6.99103 25.1613 7.25801 25.1613C7.52499 25.1613 7.74188 25.3787 7.74188 25.6452C7.74188 25.9117 7.52499 26.1291 7.25801 26.1291Z" fill="white"/>
<path d="M10.6452 22.2581C9.84499 22.2581 9.1936 22.9094 9.1936 23.7097C9.1936 24.5099 9.84499 25.1613 10.6452 25.1613C11.4454 25.1613 12.0968 24.5099 12.0968 23.7097C12.0968 22.9094 11.4454 22.2581 10.6452 22.2581ZM10.6452 24.1935C10.3782 24.1935 10.1613 23.9762 10.1613 23.7097C10.1613 23.4432 10.3782 23.2258 10.6452 23.2258C10.9122 23.2258 11.1291 23.4432 11.1291 23.7097C11.1291 23.9762 10.9122 24.1935 10.6452 24.1935Z" fill="white"/>
<path d="M11.1292 27.0968H12.0969V28.0645H11.1292V27.0968Z" fill="white"/>
<path d="M10.1614 26.129H11.1291V27.0968H10.1614V26.129Z" fill="white"/>
<path d="M9.1936 27.0968H10.1613V28.0645H9.1936V27.0968Z" fill="white"/>
<path d="M5.32251 22.7419H6.29025V23.7097H5.32251V22.7419Z" fill="white"/>
<path d="M29.5161 6.77417H22.7419C22.4742 6.77417 22.2581 6.99106 22.2581 7.25804V9.19352C22.2581 9.4605 22.4742 9.6774 22.7419 9.6774H23.2258V27.0968C23.2258 28.6979 24.5279 30 26.129 30C27.7302 30 29.0323 28.6979 29.0323 27.0968V9.6774H29.5161C29.7838 9.6774 30 9.4605 30 9.19352V7.25804C30 6.99106 29.7838 6.77417 29.5161 6.77417ZM26.129 29.0322C25.0616 29.0322 24.1935 28.1642 24.1935 27.0968V16.4516H28.0645V27.0968C28.0645 28.1642 27.1965 29.0322 26.129 29.0322ZM28.0645 15.4838H24.1935V9.6774H28.0645V15.4838ZM29.0323 8.70965H23.2258V7.74191H29.0323V8.70965Z" fill="white"/>
<path d="M25.1614 26.6129H26.1291V27.5807H25.1614V26.6129Z" fill="white"/>
<path d="M26.1292 24.6774H27.0969V25.6451H26.1292V24.6774Z" fill="white"/>
<path d="M25.1614 22.7419H26.1291V23.7097H25.1614V22.7419Z" fill="white"/>
<path d="M26.1292 20.8064H27.0969V21.7741H26.1292V20.8064Z" fill="white"/>
<path d="M25.1614 18.871H26.1291V19.8387H25.1614V18.871Z" fill="white"/>
<path d="M7.74191 5.32258C7.74191 5.05607 7.9588 4.83871 8.22578 4.83871H9.6774V7.74194H10.6451V4.83871H15.4838V15.4839H16.4516V4.83871H17.9032C18.1702 4.83871 18.3871 5.05607 18.3871 5.32258V15.4839H19.3548V5.32258C19.3548 4.52235 18.7034 3.87097 17.9032 3.87097H16.4516V3.3871C16.4516 3.12059 16.6685 2.90323 16.9355 2.90323H22.7419C23.0089 2.90323 23.2258 3.12059 23.2258 3.3871V5.80645H24.1935V3.3871C24.1935 2.58687 23.5421 1.93548 22.7419 1.93548H16.9355C16.1352 1.93548 15.4838 2.58687 15.4838 3.3871V3.87097H10.6451V1.45161C10.6451 1.18511 10.862 0.967742 11.129 0.967742H27.5806C27.8476 0.967742 28.0645 1.18511 28.0645 1.45161V5.80645H29.0322V1.45161C29.0322 0.651383 28.3809 0 27.5806 0H11.129C10.3288 0 9.6774 0.651383 9.6774 1.45161V3.87097H8.22578C7.42555 3.87097 6.77417 4.52235 6.77417 5.32258V7.74194H7.74191V5.32258Z" fill="white"/>
<path d="M2.90332 7.25801C2.90332 8.05824 3.5547 8.70962 4.35493 8.70962C5.15516 8.70962 5.80655 8.05824 5.80655 7.25801C5.80655 6.45778 5.15516 5.8064 4.35493 5.8064C3.5547 5.8064 2.90332 6.45778 2.90332 7.25801ZM4.8388 7.25801C4.8388 7.52452 4.62191 7.74188 4.35493 7.74188C4.08795 7.74188 3.87106 7.52452 3.87106 7.25801C3.87106 6.9915 4.08795 6.77414 4.35493 6.77414C4.62191 6.77414 4.8388 6.9915 4.8388 7.25801Z" fill="white"/>
<path d="M2.41935 4.83871C3.75331 4.83871 4.83871 3.75331 4.83871 2.41935C4.83871 1.0854 3.75331 0 2.41935 0C1.0854 0 0 1.0854 0 2.41935C0 3.75331 1.0854 4.83871 2.41935 4.83871ZM2.41935 0.967742C3.21958 0.967742 3.87097 1.61912 3.87097 2.41935C3.87097 3.21958 3.21958 3.87097 2.41935 3.87097C1.61912 3.87097 0.967742 3.21958 0.967742 2.41935C0.967742 1.61912 1.61912 0.967742 2.41935 0.967742Z" fill="white"/>
<path d="M1.93548 13.5483C3.00293 13.5483 3.87097 12.6803 3.87097 11.6129C3.87097 10.5454 3.00293 9.67737 1.93548 9.67737C0.868038 9.67737 0 10.5454 0 11.6129C0 12.6803 0.868038 13.5483 1.93548 13.5483ZM1.93548 10.6451C2.46921 10.6451 2.90323 11.0791 2.90323 11.6129C2.90323 12.1466 2.46921 12.5806 1.93548 12.5806C1.40176 12.5806 0.967742 12.1466 0.967742 11.6129C0.967742 11.0791 1.40176 10.6451 1.93548 10.6451Z" fill="white"/>
</g>
<defs>
<clipPath id="clip0_1_392">
<rect width="30" height="30" fill="white"/>
</clipPath>
</defs>
</svg>

<svg width="30" height="30" fill="none" xmlns="http://www.w3.org/2000/svg"><g clip-path="url(#a)" fill="#fff"><path d="M19.355 20.73v-3.31h.968v-.968h-5.807v.967h.968v3.311c-.33.144-.629.332-.912.54l-2.96-5.425v-2.297h.969v-.967h-.968v-1.452a.484.484 0 0 0-.484-.484h-.484V9.194a.484.484 0 0 0-.484-.484H7.258a.484.484 0 0 0-.484.484v1.451H6.29a.484.484 0 0 0-.484.484v1.452H4.84v.967h.967v2.296L.296 25.948A2.428 2.428 0 0 0 0 27.107v.474A2.422 2.422 0 0 0 2.42 30H15c.343 0 .68-.076.99-.216a4.844 4.844 0 0 0 6.268-4.623 4.847 4.847 0 0 0-2.903-4.43Zm-.968-3.31v.967h-1.935v-.968h1.935Zm-2.258 4.096a.484.484 0 0 0 .323-.456v-1.705h1.935v1.704c0 .206.13.388.322.457a3.873 3.873 0 0 1 2.448 2.682 1.44 1.44 0 0 0-.976.42l-.4.402a.488.488 0 0 1-.343.141h-.166a.487.487 0 0 1-.342-.141l-.401-.401a1.441 1.441 0 0 0-1.026-.425h-.167a1.44 1.44 0 0 0-1.026.425l-.4.4a.488.488 0 0 1-.343.142h-.166a.487.487 0 0 1-.342-.141l-.401-.401a1.44 1.44 0 0 0-.976-.42 3.872 3.872 0 0 1 2.447-2.683ZM7.742 9.677h1.935v.968H7.742v-.968Zm-.968 1.936h3.871v.968h-3.87v-.968ZM6.715 16.2a.485.485 0 0 0 .06-.232v-2.42h3.87v2.42c0 .08.02.16.06.232l1.724 3.162c-.361.017-.7.16-.958.418l-.4.4a.488.488 0 0 1-.343.143h-.166a.487.487 0 0 1-.342-.142l-.4-.4a1.44 1.44 0 0 0-1.027-.426h-.166a1.44 1.44 0 0 0-1.027.425l-.4.4a.488.488 0 0 1-.343.143h-.166a.487.487 0 0 1-.342-.142l-.4-.4a1.437 1.437 0 0 0-.959-.42L6.715 16.2ZM2.42 29.032c-.8 0-1.451-.651-1.451-1.451v-.474c0-.242.061-.483.177-.696l3.321-6.088h.456c.127 0 .252.051.342.141l.4.401a1.44 1.44 0 0 0 1.027.425h.166a1.44 1.44 0 0 0 1.027-.425l.4-.4a.488.488 0 0 1 .343-.142h.166c.127 0 .252.051.342.141l.4.401a1.44 1.44 0 0 0 1.027.425h.166c.388 0 .753-.15 1.027-.425l.4-.4a.488.488 0 0 1 .343-.142h.455l.876 1.605a4.833 4.833 0 0 0-1.248 3.233 4.83 4.83 0 0 0 1.948 3.871H2.419Zm15 0a3.875 3.875 0 0 1-3.87-3.87h.083c.127 0 .252.051.342.141l.4.4a1.44 1.44 0 0 0 1.027.426h.166c.388 0 .753-.15 1.026-.425l.401-.4a.488.488 0 0 1 .342-.143h.167c.127 0 .252.052.342.142l.4.4c.274.275.639.426 1.027.426h.166a1.44 1.44 0 0 0 1.026-.425l.401-.4a.488.488 0 0 1 .342-.143h.083a3.875 3.875 0 0 1-3.87 3.871Z"/><path d="M3.387 25.161c-.8 0-1.451.652-1.451 1.452 0 .8.65 1.451 1.451 1.451.8 0 1.452-.65 1.452-1.451 0-.8-.652-1.452-1.452-1.452Zm0 1.936a.484.484 0 1 1 .001-.97.484.484 0 0 1 0 .97ZM7.258 24.194c-.8 0-1.452.651-1.452 1.451s.652 1.452 1.452 1.452c.8 0 1.452-.652 1.452-1.452 0-.8-.652-1.451-1.452-1.451Zm0 1.935a.485.485 0 1 1 .001-.969.485.485 0 0 1-.001.97ZM10.645 22.258c-.8 0-1.451.651-1.451 1.452 0 .8.651 1.451 1.451 1.451s1.452-.651 1.452-1.451-.652-1.452-1.452-1.452Zm0 1.936a.484.484 0 1 1 .001-.97.484.484 0 0 1 0 .97ZM11.13 27.097h.967v.967h-.968v-.967ZM10.161 26.129h.968v.968h-.968v-.968ZM9.194 27.097h.967v.967h-.967v-.967ZM5.323 22.742h.967v.968h-.967v-.968ZM29.516 6.774h-6.774a.484.484 0 0 0-.484.484v1.936c0 .266.216.483.484.483h.484v17.42A2.906 2.906 0 0 0 26.129 30a2.906 2.906 0 0 0 2.903-2.903V9.677h.484A.484.484 0 0 0 30 9.194V7.258a.484.484 0 0 0-.484-.484ZM26.13 29.032a1.937 1.937 0 0 1-1.936-1.935V16.452h3.871v10.645a1.937 1.937 0 0 1-1.935 1.935Zm1.935-13.548h-3.87V9.677h3.87v5.807Zm.968-6.774h-5.806v-.968h5.806v.968Z"/><path d="M25.161 26.613h.968v.968h-.968v-.968ZM26.13 24.677h.967v.968h-.968v-.968ZM25.161 22.742h.968v.968h-.968v-.968ZM26.13 20.806h.967v.968h-.968v-.968ZM25.161 18.871h.968v.968h-.968v-.968ZM7.742 5.323c0-.267.217-.484.484-.484h1.451v2.903h.968V4.839h4.839v10.645h.968V4.839h1.451c.267 0 .484.217.484.484v10.16h.968V5.324c0-.8-.652-1.452-1.452-1.452h-1.451v-.484c0-.266.216-.484.483-.484h5.807c.267 0 .484.218.484.484v2.42h.968v-2.42c0-.8-.652-1.452-1.452-1.452h-5.806c-.8 0-1.452.652-1.452 1.452v.484h-4.839v-2.42c0-.266.217-.483.484-.483h16.452c.267 0 .483.217.483.484v4.354h.968V1.452c0-.8-.651-1.452-1.451-1.452H11.129c-.8 0-1.452.651-1.452 1.452V3.87H8.226c-.8 0-1.452.651-1.452 1.452v2.419h.968v-2.42ZM2.903 7.258c0 .8.652 1.452 1.452 1.452.8 0 1.452-.652 1.452-1.452 0-.8-.652-1.452-1.452-1.452-.8 0-1.452.652-1.452 1.452Zm1.936 0a.484.484 0 1 1-.97-.001.484.484 0 0 1 .97.001ZM2.42 4.839a2.422 2.422 0 0 0 2.419-2.42A2.422 2.422 0 0 0 2.419 0 2.422 2.422 0 0 0 0 2.42a2.422 2.422 0 0 0 2.42 2.419Zm0-3.871c.8 0 1.451.651 1.451 1.451S3.22 3.871 2.419 3.871c-.8 0-1.451-.651-1.451-1.452 0-.8.651-1.451 1.451-1.451ZM1.935 13.548a1.937 1.937 0 0 0 1.936-1.935 1.937 1.937 0 0 0-1.936-1.936A1.937 1.937 0 0 0 0 11.613c0 1.067.868 1.935 1.935 1.935Zm0-2.903a.969.969 0 0 1 0 1.936.969.969 0 0 1 0-1.936Z"/></g><defs><clipPath id="a"><path fill="#fff" d="M0 0h30v30H0z"/></clipPath></defs></svg>
